X:17
T:Lodge Road
Z: id:dc-setdance-18
M:C|
L:1/8
K:D Major
A2|d2df edcB|A2A2 A2F2|DFAF DFAF|G2FG E2A2|!
d2df edcB|A2A2 A2F2|DFAF GFEF|D2DC D2:|!
A2|defg agfe|defg a2af|g2eg f2df|edcB ABcA|!
f2f2 g2g2|e2e2 f2fe|dfaf dfaf|g2fg e2e2|!
f2f2 g2g2|e2e2 f2fe|dfaf bgec|d2dc d2|]!

